X: 1410
T: The Maids Of Mitchellstown
M:C|
L:1/8
N:"collected by Cronin"
B:O'Neill's 1410
Z:"Transcribed by Bob Safranek, rjs@gsp.org"
Z:Assume there should be "D.C." at end of B part
K:D
D2 (AG) EFGE | ABGE cAGE    | D2 (AG) EFGB | ABGE CEGE              |
D2 (AG) EFGE | ABGE cAGE    | D2 (AG) EFGB | AcGE (TED) "   Fine"D2 ||
DEGA c2 (AG) | Adde f2 (ed) | cAGE   FEFG  | AFGE (TED) D z         |
DEGA c2 (AG) | Adde f2 (ed) | cAGE   FEFG  | AddB cAGE              |]


